svg/application_cog_outline.svg

<svg xmlns="http://www.w3.org/2000/svg" viewBox="0 0 24 24"><path d="M21.7 18.6v-1l1.1-.8c.1-.1.2-.2.1-.3l-1-1.7c0-.1-.2-.1-.3-.1l-1.2.5c-.3-.2-.6-.4-.9-.5l-.2-1.3c0-.1-.1-.2-.2-.2h-2c-.2 0-.3.1-.3.2l-.2 1.3c-.3.2-.5.3-.8.5l-1.2-.5c-.1 0-.2 0-.3.1l-1 1.7c0 .1 0 .2.1.3l1.1.8v1l-1.1.8c-.1.1-.2.2-.1.3l1 1.7c.1.1.2.1.3.1l1.2-.5c.2.2.5.4.8.5l.2 1.3c.1.1.2.2.3.2h2c.1 0 .2-.1.2-.2l.2-1.3c.3-.2.5-.3.8-.5l1.2.4c.1 0 .2 0 .3-.1l1-1.7c.1-.1.1-.2 0-.2zm-3.7.9c-.8 0-1.5-.7-1.5-1.5s.7-1.5 1.5-1.5 1.5.7 1.5 1.5-.7 1.5-1.5 1.5M12.3 22H3c-1.1 0-2-.9-2-2V4c0-1.1.9-2 2-2h18c1.1 0 2 .9 2 2v9.1c-.6-.6-1.3-1.1-2-1.4V6H3v14h8.3c.2.7.5 1.4 1 2"/></svg>

<svg xmlns="http://www.w3.org/2000/svg" id="mdi-application-cog-outline" viewBox="0 0 24 24"><path d="M21.7 18.6V17.6L22.8 16.8C22.9 16.7 23 16.6 22.9 16.5L21.9 14.8C21.9 14.7 21.7 14.7 21.6 14.7L20.4 15.2C20.1 15 19.8 14.8 19.5 14.7L19.3 13.4C19.3 13.3 19.2 13.2 19.1 13.2H17.1C16.9 13.2 16.8 13.3 16.8 13.4L16.6 14.7C16.3 14.9 16.1 15 15.8 15.2L14.6 14.7C14.5 14.7 14.4 14.7 14.3 14.8L13.3 16.5C13.3 16.6 13.3 16.7 13.4 16.8L14.5 17.6V18.6L13.4 19.4C13.3 19.5 13.2 19.6 13.3 19.7L14.3 21.4C14.4 21.5 14.5 21.5 14.6 21.5L15.8 21C16 21.2 16.3 21.4 16.6 21.5L16.8 22.8C16.9 22.9 17 23 17.1 23H19.1C19.2 23 19.3 22.9 19.3 22.8L19.5 21.5C19.8 21.3 20 21.2 20.3 21L21.5 21.4C21.6 21.4 21.7 21.4 21.8 21.3L22.8 19.6C22.9 19.5 22.9 19.4 22.8 19.4L21.7 18.6M18 19.5C17.2 19.5 16.5 18.8 16.5 18S17.2 16.5 18 16.5 19.5 17.2 19.5 18 18.8 19.5 18 19.5M12.3 22H3C1.9 22 1 21.1 1 20V4C1 2.9 1.9 2 3 2H21C22.1 2 23 2.9 23 4V13.1C22.4 12.5 21.7 12 21 11.7V6H3V20H11.3C11.5 20.7 11.8 21.4 12.3 22Z" /></svg>
